apple-watch/img/logo.svg

<svg width="35" height="42" viewBox="0 0 35 42" fill="none" xmlns="http://www.w3.org/2000/svg">
<path d="M35 30.45C34.7594 31.1281 34.5187 31.7625 34.2781 32.375C33.6437 33.8188 32.9 35.1531 32.0469 36.4C30.8656 38.0844 29.9031 39.2437 29.1594 39.8781C28.0219 40.9281 26.775 41.475 25.4625 41.4969C24.5219 41.4969 23.3844 41.2344 22.05 40.6875C20.7156 40.1406 19.4906 39.8781 18.375 39.8781C17.1937 39.8781 15.9469 40.1406 14.5906 40.6875C13.2344 41.2344 12.1625 41.5187 11.3313 41.5406C10.0625 41.5844 8.81563 41.0375 7.54688 39.8781C6.7375 39.1781 5.73125 37.975 4.52813 36.2687C3.2375 34.4531 2.16563 32.3531 1.33438 29.9469C0.4375 27.3437 0 24.8281 0 22.4C0 19.6219 0.6125 17.2156 1.81563 15.2031C2.75625 13.5844 4.025 12.3156 5.6 11.375C7.175 10.4344 8.88125 9.95312 10.7188 9.93125C11.725 9.93125 13.0375 10.2375 14.6781 10.85C16.3188 11.4625 17.3687 11.7687 17.8281 11.7687C18.1781 11.7687 19.3375 11.3969 21.3062 10.675C23.1656 9.99687 24.7406 9.73438 26.0312 9.84375C29.5312 10.1281 32.1562 11.5063 33.9062 13.9781C30.7781 15.8813 29.225 18.5281 29.2687 21.9406C29.2906 24.5875 30.2531 26.7969 32.1562 28.5469C32.9875 29.3781 33.9281 29.9906 35 30.45ZM26.2062 0C26.2281 0.284375 26.25 0.546873 26.25 0.831248C26.25 2.90937 25.4844 4.85625 23.975 6.65C22.1375 8.79375 19.9281 10.0187 17.5438 9.82187C17.5219 9.58125 17.5 9.31875 17.5 9.03437C17.5 7.04375 18.375 4.9 19.9062 3.15C20.6719 2.275 21.6563 1.53125 22.8375 0.940624C24.0406 0.371874 25.1562 0.04375 26.2062 0Z" fill="#333333"/>
</svg>

<svg width="35" height="42" fill="none" xmlns="http://www.w3.org/2000/svg"><path d="M35 30.45a61.14 61.14 0 0 1-.722 1.925 24.671 24.671 0 0 1-2.231 4.025c-1.181 1.684-2.144 2.844-2.888 3.478-1.137 1.05-2.384 1.597-3.697 1.619-.94 0-2.078-.263-3.412-.81-1.334-.546-2.56-.809-3.675-.809-1.181 0-2.428.263-3.784.81-1.357.546-2.428.83-3.26.853-1.268.043-2.515-.503-3.784-1.663-.81-.7-1.816-1.903-3.019-3.61-1.29-1.815-2.362-3.915-3.194-6.321C.437 27.344 0 24.828 0 22.4c0-2.778.613-5.184 1.816-7.197A10.583 10.583 0 0 1 5.6 11.375a10.047 10.047 0 0 1 5.119-1.444c1.006 0 2.319.307 3.96.919 1.64.613 2.69.919 3.15.919.35 0 1.508-.372 3.477-1.094 1.86-.678 3.435-.94 4.725-.831 3.5.284 6.125 1.662 7.875 4.134-3.128 1.903-4.681 4.55-4.637 7.963.022 2.646.984 4.856 2.887 6.606A8.897 8.897 0 0 0 35 30.45zM26.206 0c.022.284.044.547.044.831 0 2.078-.766 4.025-2.275 5.819-1.838 2.144-4.047 3.369-6.431 3.172a8.525 8.525 0 0 1-.044-.788c0-1.99.875-4.134 2.406-5.884.766-.875 1.75-1.619 2.931-2.21 1.204-.568 2.32-.896 3.37-.94z" fill="#333"/></svg>
